www/assets/icons/app_settings_alt.svg

<svg width="24" height="24" viewBox="0 0 24 24" xmlns="http://www.w3.org/2000/svg" fill='currentColor'><path d="M20.3277 12.74L19.5077 12.11V11.89L20.3077 11.26C20.4677 11.14 20.5077 10.92 20.4077 10.75L19.5577 9.27C19.4877 9.14 19.3477 9.07 19.2077 9.07C19.1577 9.07 19.1077 9.08 19.0577 9.1L18.1077 9.48C18.0277 9.43 17.9977 9.41 17.9177 9.37L17.7677 8.36C17.7377 8.15 17.5677 8 17.3677 8H15.6577C15.4577 8 15.2877 8.15 15.2577 8.34L15.1177 9.35C15.0877 9.37 15.0477 9.38 15.0177 9.4L14.9277 9.46L13.9777 9.08C13.9277 9.06 13.8777 9.05 13.8277 9.05C13.6877 9.05 13.5577 9.12 13.4777 9.25L12.6277 10.73C12.5277 10.9 12.5677 11.12 12.7277 11.24L13.5277 11.87V12.1L12.7277 12.73C12.5677 12.85 12.5277 13.07 12.6277 13.24L13.4777 14.72C13.5477 14.85 13.6877 14.92 13.8277 14.92C13.8777 14.92 13.9277 14.91 13.9777 14.89L14.9277 14.52C15.0077 14.57 15.0477 14.59 15.1277 14.63L15.2777 15.64C15.3077 15.84 15.4777 15.98 15.6777 15.98H17.3877C17.5877 15.98 17.7577 15.83 17.7877 15.64L17.9377 14.63C17.9677 14.61 18.0077 14.6 18.0377 14.58L18.1277 14.52L19.0777 14.9C19.1277 14.92 19.1777 14.93 19.2277 14.93C19.3677 14.93 19.4977 14.86 19.5777 14.73L20.4277 13.25C20.5277 13.08 20.4877 12.86 20.3277 12.74ZM16.5177 13.5C15.6877 13.5 15.0177 12.83 15.0177 12C15.0177 11.17 15.6877 10.5 16.5177 10.5C17.3477 10.5 18.0177 11.17 18.0177 12C18.0177 12.83 17.3477 13.5 16.5177 13.5ZM15.5177 17H17.5177V21C17.5177 22.1 16.6177 23 15.5177 23H5.5177C4.4177 23 3.5177 22.1 3.5177 21V3C3.5177 1.9 4.4177 1 5.5177 1H15.5177C16.6177 1 17.5177 1.9 17.5177 3V7H15.5177V6H5.5177V18H15.5177V17Z"/></svg>

<svg xmlns="http://www.w3.org/2000/svg" width="24" height="24" viewBox="0 0 24 24" fill='currentColor'><path d="m20.328 12.74-.82-.63v-.22l.8-.63c.16-.12.2-.34.1-.51l-.85-1.48a.4.4 0 0 0-.35-.2q-.075 0-.15.03l-.95.38c-.08-.05-.11-.07-.19-.11l-.15-1.01a.41.41 0 0 0-.4-.36h-1.71c-.2 0-.37.15-.4.34l-.14 1.01c-.03.02-.07.03-.1.05l-.09.06-.95-.38a.4.4 0 0 0-.5.17l-.85 1.48c-.1.17-.06.39.1.51l.8.63v.23l-.8.63a.39.39 0 0 0-.1.51l.85 1.48c.07.13.21.2.35.2q.075 0 .15-.03l.95-.37c.08.05.12.07.2.11l.15 1.01c.03.2.2.34.4.34h1.71c.2 0 .37-.15.4-.34l.15-1.01c.03-.02.07-.03.1-.05l.09-.06.95.38a.4.4 0 0 0 .5-.17l.85-1.48a.39.39 0 0 0-.1-.51m-3.81.76c-.83 0-1.5-.67-1.5-1.5s.67-1.5 1.5-1.5 1.5.67 1.5 1.5-.67 1.5-1.5 1.5m-1 3.5h2v4c0 1.1-.9 2-2 2h-10c-1.1 0-2-.9-2-2V3c0-1.1.9-2 2-2h10c1.1 0 2 .9 2 2v4h-2V6h-10v12h10z"/></svg>
